public/rooster.svg

<svg xmlns="http://www.w3.org/2000/svg" width="400" height="400"><style>.rooster-line{fill:none;stroke:#000;stroke-width:1.5;stroke-linecap:round;stroke-linejoin:round}</style><path d="M200 150c30-10 50-30 60-50s20-30 30-35q15-7.5 30 0c10 5 15 15 10 25s-15 15-25 10-15-15-10-25" class="rooster-line"/><path d="M260 100c10-20 20-30 30-35q15-7.5 30 0c10 5 15 15 10 25s-15 15-25 10-15-15-10-25" style="fill:#ff6b6b"/><path d="M200 150c-20 10-30 30-30 50s10 40 30 50q30 15 60 0c20-10 30-30 30-50s-10-40-30-50" class="rooster-line"/><path d="M260 200c20-10 40-15 60-10s30 20 25 35-20 20-35 15-20-20-10-30" class="rooster-line"/><path d="M260 210c20 10 40 15 60 10s30-20 25-35-20-20-35-15-20 20-10 30M190 250c-5 20-10 40-5 60s15 30 25 25 15-20 10-35-15-25-30-20" class="rooster-line"/><path d="M240 250c5 20 10 40 5 60s-15 30-25 25-15-20-10-35 15-25 30-20" class="rooster-line"/><path d="M170 150c-10 5-20 10-30 5s-15-15-10-25 15-15 25-10 15 15 10 25" style="fill:#ffa94d"/><path d="M170 150c-10 5-20 10-30 5s-15-15-10-25 15-15 25-10 15 15 10 25" class="rooster-line"/><circle cx="180" cy="140" r="5"/><path d="M185 330c-5 5-10 10-15 5q-7.5-7.5 0-15M185 330c5 5 10 10 15 5q7.5-7.5 0-15M245 330c-5 5-10 10-15 5q-7.5-7.5 0-15M245 330c5 5 10 10 15 5q7.5-7.5 0-15" class="rooster-line"/><path d="M150 100c5-5 10-10 15-5M250 100c5-5 10-10 15-5M150 200c5-5 10-10 15-5M250 200c5-5 10-10 15-5" class="rooster-line" style="opacity:.6;stroke-width:1"/><path d="M220 170c5 5 10 10 15 5M180 220c5 5 10 10 15 5" class="rooster-line" style="opacity:.4;stroke-width:.8"/></svg>

<svg width="400" height="400" viewBox="0 0 400 400" xmlns="http://www.w3.org/2000/svg">
  <style>
    .rooster-line {
      fill: none;
      stroke: #000;
      stroke-width: 1.5;
      stroke-linecap: round;
      stroke-linejoin: round;
    }
    .comb {
      fill: #ff6b6b;
    }
    .beak {
      fill: #ffa94d;
    }
  </style>
  
  <!-- Rooster head and comb -->
  <path class="rooster-line" d="M200,150 C230,140 250,120 260,100 C270,80 280,70 290,65 C300,60 310,60 320,65 C330,70 335,80 330,90 C325,100 315,105 305,100 C295,95 290,85 295,75" />
  <path class="comb" d="M260,100 C270,80 280,70 290,65 C300,60 310,60 320,65 C330,70 335,80 330,90 C325,100 315,105 305,100 C295,95 290,85 295,75" />
  
  <!-- Rooster body -->
  <path class="rooster-line" d="M200,150 C180,160 170,180 170,200 C170,220 180,240 200,250 C220,260 240,260 260,250 C280,240 290,220 290,200 C290,180 280,160 260,150" />
  
  <!-- Rooster tail -->
  <path class="rooster-line" d="M260,200 C280,190 300,185 320,190 C340,195 350,210 345,225 C340,240 325,245 310,240 C295,235 290,220 300,210" />
  <path class="rooster-line" d="M260,210 C280,220 300,225 320,220 C340,215 350,200 345,185 C340,170 325,165 310,170 C295,175 290,190 300,200" />
  
  <!-- Rooster legs -->
  <path class="rooster-line" d="M190,250 C185,270 180,290 185,310 C190,330 200,340 210,335 C220,330 225,315 220,300 C215,285 205,275 190,280" />
  <path class="rooster-line" d="M240,250 C245,270 250,290 245,310 C240,330 230,340 220,335 C210,330 205,315 210,300 C215,285 225,275 240,280" />
  
  <!-- Rooster beak -->
  <path class="beak" d="M170,150 C160,155 150,160 140,155 C130,150 125,140 130,130 C135,120 145,115 155,120 C165,125 170,135 165,145" />
  <path class="rooster-line" d="M170,150 C160,155 150,160 140,155 C130,150 125,140 130,130 C135,120 145,115 155,120 C165,125 170,135 165,145" />
  
  <!-- Rooster eye -->
  <circle cx="180" cy="140" r="5" />
  
  <!-- Rooster feet -->
  <path class="rooster-line" d="M185,330 C180,335 175,340 170,335 C165,330 165,325 170,320" />
  <path class="rooster-line" d="M185,330 C190,335 195,340 200,335 C205,330 205,325 200,320" />
  <path class="rooster-line" d="M245,330 C240,335 235,340 230,335 C225,330 225,325 230,320" />
  <path class="rooster-line" d="M245,330 C250,335 255,340 260,335 C265,330 265,325 260,320" />
  
  <!-- Sketchy effect with light, varied strokes -->
  <path class="rooster-line" d="M150,100 C155,95 160,90 165,95" style="opacity: 0.6; stroke-width: 1" />
  <path class="rooster-line" d="M250,100 C255,95 260,90 265,95" style="opacity: 0.6; stroke-width: 1" />
  <path class="rooster-line" d="M150,200 C155,195 160,190 165,195" style="opacity: 0.6; stroke-width: 1" />
  <path class="rooster-line" d="M250,200 C255,195 260,190 265,195" style="opacity: 0.6; stroke-width: 1" />
  <path class="rooster-line" d="M220,170 C225,175 230,180 235,175" style="opacity: 0.4; stroke-width: 0.8" />
  <path class="rooster-line" d="M180,220 C185,225 190,230 195,225" style="opacity: 0.4; stroke-width: 0.8" />
</svg>
